docs/images/icons/Adobe_Illustrator.svg

<svg width="50" height="50" viewBox="0 0 50 50" fill="none" xmlns="http://www.w3.org/2000/svg">
<g id="Adobe_Illustrator_CC_icon 1" clip-path="url(#clip0_49_61)">
<path id="Vector" d="M8.85417 0H41.1458C46.0417 0 50 4.05983 50 9.0812V40.9188C50 45.9402 46.0417 50 41.1458 50H8.85417C3.95833 50 0 45.9402 0 40.9188V9.0812C0 4.05983 3.95833 0 8.85417 0Z" fill="#330000"/>
<path id="Vector_2" d="M24.1667 29.9145H16.4167L14.8334 34.9359C14.7917 35.1282 14.625 35.2564 14.4375 35.235H10.5209C10.2917 35.235 10.2292 35.1068 10.2917 34.8504L17 15.0427C17.0625 14.8291 17.125 14.594 17.2084 14.3376C17.2917 13.8889 17.3333 13.4188 17.3333 12.9487C17.3125 12.8419 17.3959 12.735 17.5 12.7137H22.8959C23.0625 12.7137 23.1459 12.7778 23.1667 12.8846L30.7709 34.8932C30.8334 35.1282 30.7709 35.235 30.5625 35.235H26.2084C26.0625 35.2564 25.9167 35.1496 25.875 35L24.1667 29.9145ZM17.625 25.5769H22.9167C22.7917 25.1282 22.625 24.594 22.4375 24.0385C22.25 23.4615 22.0625 22.8419 21.875 22.2009C21.6667 21.5385 21.4792 20.8974 21.2709 20.235C21.0625 19.5726 20.875 18.953 20.7084 18.3333C20.5417 17.735 20.3959 17.1795 20.25 16.6667H20.2084C20.0209 17.5855 19.7917 18.5043 19.5 19.4231C19.1875 20.4487 18.875 21.5171 18.5417 22.5855C18.25 23.6752 17.9375 24.6795 17.625 25.5769ZM35.4167 16.453C34.7292 16.4744 34.0625 16.1966 33.5625 15.7051C33.0834 15.1709 32.8334 14.4658 32.8542 13.7393C32.8334 13.0128 33.1042 12.3291 33.6042 11.8376C34.1042 11.3462 34.7709 11.0897 35.4584 11.0897C36.2709 11.0897 36.8959 11.3462 37.3542 11.8376C37.8125 12.3504 38.0625 13.0342 38.0417 13.7393C38.0625 14.4658 37.8125 15.1709 37.3125 15.7051C36.8334 16.2179 36.125 16.4957 35.4167 16.453ZM33.0834 35V18.547C33.0834 18.3333 33.1667 18.2479 33.3542 18.2479H37.4792C37.6667 18.2479 37.75 18.3547 37.75 18.547V35C37.75 35.235 37.6667 35.3419 37.4792 35.3419H33.3959C33.1875 35.3419 33.0834 35.2137 33.0834 35Z" fill="#FF9A00"/>
</g>
<defs>
<clipPath id="clip0_49_61">
<rect width="50" height="50" fill="white"/>
</clipPath>
</defs>
</svg>

<svg width="50" height="50" fill="none" xmlns="http://www.w3.org/2000/svg"><g clip-path="url(#a)"><path d="M8.854 0h32.292C46.042 0 50 4.06 50 9.081V40.92c0 5.02-3.958 9.08-8.854 9.08H8.854C3.958 50 0 45.94 0 40.919V9.08C0 4.06 3.958 0 8.854 0Z" fill="#300"/><path d="M24.167 29.915h-7.75l-1.584 5.02a.366.366 0 0 1-.396.3h-3.916c-.23 0-.292-.128-.23-.385L17 15.043c.063-.214.125-.449.208-.705.084-.45.125-.92.125-1.39-.02-.106.063-.213.167-.234h5.396c.166 0 .25.064.27.17l7.605 22.01c.062.234 0 .341-.209.341h-4.354c-.145.021-.291-.085-.333-.235l-1.708-5.085Zm-6.542-4.338h5.292a30.916 30.916 0 0 0-.48-1.539 65.683 65.683 0 0 1-.562-1.837c-.208-.663-.396-1.304-.604-1.966a46.854 46.854 0 0 1-.563-1.902c-.166-.598-.312-1.153-.458-1.666h-.042a26.77 26.77 0 0 1-.708 2.756c-.313 1.026-.625 2.094-.958 3.163a42.74 42.74 0 0 1-.917 2.99Zm17.792-9.124a2.544 2.544 0 0 1-1.855-.748 2.818 2.818 0 0 1-.708-1.966 2.55 2.55 0 0 1 .75-1.901 2.632 2.632 0 0 1 1.854-.748c.813 0 1.438.256 1.896.748.459.512.709 1.196.688 1.901.02.727-.23 1.432-.73 1.966a2.417 2.417 0 0 1-1.895.748ZM33.083 35V18.547c0-.214.084-.3.271-.3h4.125c.188 0 .271.108.271.3V35c0 .235-.083.342-.27.342h-4.084c-.209 0-.313-.128-.313-.342Z" fill="#FF9A00"/></g><defs><clipPath id="a"><path fill="#fff" d="M0 0h50v50H0z"/></clipPath></defs></svg>
